Adwaita++/devices/16/hifi.svg

<svg height="16" width="16" xmlns="http://www.w3.org/2000/svg">
  <path d="m3.625-.0000002c-.34625 0-.625.2672094-.625.5996094v10.8007818c0 .3324.27875.599609.625.599609h3.375v2h-1c-.554 0-1 .446-1 1s.446 1 1 1h4c.554 0 1-.446 1-1s-.446-1-1-1h-1v-2h3.375c.34625 0 .625-.267209.625-.599609v-10.8007818c0-.3324-.27875-.5996094-.625-.5996094zm.875 1a.5.5 0 0 1 .5.5.5.5 0 0 1 -.5.5.5.5 0 0 1 -.5-.5.5.5 0 0 1 .5-.5zm3.5 0a3.9999998 3.9999998 0 0 1 4 4 3.9999998 3.9999998 0 0 1 -4 4 3.9999998 3.9999998 0 0 1 -4-4 3.9999998 3.9999998 0 0 1 4-4zm3.5 0a.5.5 0 0 1 .5.5.5.5 0 0 1 -.5.5.5.5 0 0 1 -.5-.5.5.5 0 0 1 .5-.5zm-3.5 1a3 3 0 0 0 -3 3 3 3 0 0 0 3 3 3 3 0 0 0 3-3 3 3 0 0 0 -3-3zm0 2a1 1 0 0 1 1 1 1 1 0 0 1 -1 1 1 1 0 0 1 -1-1 1 1 0 0 1 1-1zm-3.5 6a.5.5 0 0 1 .5.5000002.5.5 0 0 1 -.5.5.5.5 0 0 1 -.5-.5.5.5 0 0 1 .5-.5000002zm7 0a.5.5 0 0 1 .5.5000002.5.5 0 0 1 -.5.5.5.5 0 0 1 -.5-.5.5.5 0 0 1 .5-.5000002z" fill="#474747"/>
</svg>

<svg xmlns="http://www.w3.org/2000/svg" width="16" height="16" version="1.1">
 <defs>
  <style id="current-color-scheme" type="text/css">
   .ColorScheme-Text { color:#474747; } .ColorScheme-Highlight { color:#4285f4; }
  </style>
 </defs>
 <path style="fill:currentColor" class="ColorScheme-Text" d="M 3.625,-2e-7 C 3.27875,-2e-7 3,0.2672092 3,0.5996092 V 11.400391 C 3,11.732791 3.27875,12 3.625,12 H 7 v 2 H 6 c -0.554,0 -1,0.446 -1,1 0,0.554 0.446,1 1,1 h 4 c 0.554,0 1,-0.446 1,-1 0,-0.554 -0.446,-1 -1,-1 H 9 v -2 h 3.375 C 12.72125,12 13,11.732791 13,11.400391 V 0.5996092 C 13,0.2672092 12.72125,-2e-7 12.375,-2e-7 Z m 0.875,1 a 0.5,0.5 0 0 1 0.5,0.5 0.5,0.5 0 0 1 -0.5,0.5 0.5,0.5 0 0 1 -0.5,-0.5 0.5,0.5 0 0 1 0.5,-0.5 z m 3.5,0 a 3.9999998,3.9999998 0 0 1 4,4 3.9999998,3.9999998 0 0 1 -4,4 3.9999998,3.9999998 0 0 1 -4,-4 3.9999998,3.9999998 0 0 1 4,-4 z m 3.5,0 a 0.5,0.5 0 0 1 0.5,0.5 0.5,0.5 0 0 1 -0.5,0.5 0.5,0.5 0 0 1 -0.5,-0.5 0.5,0.5 0 0 1 0.5,-0.5 z m -3.5,1 a 3,3 0 0 0 -3,3 3,3 0 0 0 3,3 3,3 0 0 0 3,-3 3,3 0 0 0 -3,-3 z m 0,2 a 1,1 0 0 1 1,1 1,1 0 0 1 -1,1 1,1 0 0 1 -1,-1 1,1 0 0 1 1,-1 z m -3.5,6 A 0.5,0.5 0 0 1 5,10.5 0.5,0.5 0 0 1 4.5,11 0.5,0.5 0 0 1 4,10.5 0.5,0.5 0 0 1 4.5,9.9999998 Z m 7,0 A 0.5,0.5 0 0 1 12,10.5 0.5,0.5 0 0 1 11.5,11 0.5,0.5 0 0 1 11,10.5 0.5,0.5 0 0 1 11.5,9.9999998 Z"/>
</svg>
